onyx/static/img/content/features-bg.svg

<?xml version="1.0" encoding="UTF-8"?>
<svg width="1390px" height="525px" viewBox="0 0 1390 525" version="1.1" xmlns="http://www.w3.org/2000/svg" xmlns:xlink="http://www.w3.org/1999/xlink">
    <!-- Generator: Sketch 46.2 (44496) - http://www.bohemiancoding.com/sketch -->
    <title>onyx</title>
    <desc>Created with Sketch.</desc>
    <defs></defs>
    <g id="Page-1" stroke="none" stroke-width="1" fill="none" fill-rule="evenodd" opacity="0.0199999996">
        <g id="INDEX-PAGE" transform="translate(0.000000, -1282.000000)" fill="#0829CC">
            <g id="SERVICES" transform="translate(0.000000, 900.000000)">
                <g id="onyx" transform="translate(0.000000, 382.000000)">
                    <path d="M672.197799,6.92767642 L704.907556,6.92767642 L803.037686,6.92767642 L880.583414,141.240323 L958.128284,6.92767642 L974.483162,6.92767642 L1088.96874,6.92767642 L1117.7423,6.92767642 L1182.01338,90.0103224 L1246.2856,6.92767642 L1389.54388,6.92767642 L1253.64309,182.603534 L1389.54388,358.279105 L1246.28474,358.279105 L1182.01338,275.196745 L1117.7423,358.279105 L974.483734,358.279105 L1110.38452,182.603534 L1040.04105,91.6730846 L997.17289,165.922735 L905.377039,324.917794 L886.116043,358.279105 L755.275299,358.279105 L815.163042,254.550876 L704.907556,63.5828101 L704.907556,358.279105 L591.596145,358.279105 C591.596145,358.999559 477.574001,217.888056 452.20973,186.562314 L452.20973,358.279105 L338.899177,358.279105 L338.899177,276.475551 C307.008793,329.457798 248.948488,364.902708 182.603534,364.902708 C81.9223681,364.902708 0.304359424,283.284699 0.304359424,182.603534 C0.304359424,81.9223681 81.9223681,0.304359424 182.603534,0.304359424 C248.948488,0.304359424 307.008793,35.7492689 338.899177,88.7312306 L338.899177,6.92767642 L452.20973,6.92767642 C498.972915,63.9278847 545.200335,121.342926 591.596145,178.644753 L591.596145,6.92767642 L672.197799,6.92767642 Z M254.849922,182.603534 C254.849922,91.7914449 110.358003,91.7914449 110.358003,182.603534 C110.358003,273.415622 254.849922,273.415622 254.849922,182.603534 L254.849922,182.603534 Z" id="Fill-1"></path>
                    <path d="M121.638827,477.20777 C119.718188,479.761094 117.501648,482.073408 114.968337,484.077528 C111.162796,487.086567 106.902397,489.26737 102.267762,490.688838 C97.4247094,492.174345 92.416982,492.822468 87.3569359,492.797595 C82.0707473,492.771579 76.8354479,491.803826 72.0936024,489.401169 C67.8186225,487.234947 64.3089821,484.178735 61.7610906,480.115317 C59.1823226,476.002439 57.989285,471.409259 57.989285,466.561346 C57.989285,461.815498 59.2843869,457.446745 62.2156628,453.696095 C65.2141239,449.857962 69.3690281,447.34495 73.8918785,445.683617 C79.4099275,443.655768 85.4791811,442.967906 91.3294394,442.967906 L121.428122,442.967906 L121.428122,434.180654 C121.428122,429.771017 120.63791,425.37053 118.537444,421.456349 C116.637961,417.917261 113.822472,415.341066 110.236498,413.54765 C105.882039,411.37085 100.773963,410.689277 95.9554977,410.690135 C90.7259162,410.690707 85.6510036,411.690766 80.8516933,413.776938 C75.8862783,415.935727 71.2799467,418.827263 67.0707226,422.225405 L65.7644708,423.280641 L61.8322783,418.038766 L63.0567643,417.057291 C66.2247608,414.515975 69.5894528,412.239397 73.1408338,410.267869 C76.5775711,408.360095 80.221296,406.846284 84.0042515,405.775609 C87.9047097,404.672057 91.9066603,404.135433 95.9586426,404.144296 C101.887522,404.157447 107.949342,405.121769 113.270696,407.847201 C117.948215,410.24271 121.663985,413.700032 124.195009,418.312653 C126.868408,423.184009 127.94137,428.651169 127.973962,434.170933 L128.314176,492.797595 L121.772625,492.797595 L121.638827,477.20777 Z M374.357809,470.556721 C372.778242,473.136061 370.917641,475.532429 368.762569,477.720665 C364.991049,481.550507 360.587417,484.46806 355.612281,486.508775 C350.358399,488.664419 344.808615,489.65876 339.138185,489.65876 C333.44088,489.65876 327.861363,488.653841 322.596903,486.449594 C317.634919,484.370856 313.195263,481.410419 309.448902,477.547127 C305.664232,473.644953 302.81901,469.069498 300.818035,464.018887 C298.670395,458.599757 297.702071,452.886442 297.702071,447.066775 C297.702071,441.18421 298.665535,435.414002 300.815461,429.927402 C302.806716,424.847057 305.651366,420.241583 309.447187,416.313393 C313.196979,412.433234 317.621767,409.452498 322.593758,407.356034 C327.853358,405.138636 333.442595,404.144296 339.138185,404.144296 C344.807758,404.144296 350.366404,405.127487 355.616284,407.295138 C360.60114,409.354436 364.990191,412.292288 368.765142,416.139284 C370.922501,418.33867 372.781673,420.75362 374.357809,423.350971 L374.357809,404.144296 L380.903363,404.144296 L380.903363,481.429859 C380.903363,487.499113 380.02824,493.552642 377.911477,499.257952 C375.999701,504.410628 373.191646,509.053554 369.345508,512.988034 C365.550259,516.871624 361.030553,519.751725 355.967076,521.70953 C350.447598,523.845162 344.521863,524.791758 338.612139,524.683118 C331.971668,524.560756 325.483579,523.22763 319.384593,520.583964 C313.268167,517.93315 307.867048,514.018969 303.139783,509.345167 L301.981053,508.199302 L306.591387,503.588967 L307.737252,504.734832 C311.831547,508.828269 316.495343,512.251284 321.826989,514.55302 C327.184651,516.864191 332.843646,518.02721 338.673034,518.137279 C345.285201,518.263072 351.791873,516.934807 357.592958,513.689905 C362.931751,510.704309 367.01947,506.471641 369.894711,501.070809 C373.125032,495.003557 374.357809,488.256733 374.357809,481.429859 L374.357809,470.556721 Z M557.04437,450.009486 C557.210475,454.717882 558.011265,459.391685 559.712909,463.802751 C561.435137,468.267278 563.918131,472.288384 567.241654,475.733412 C570.504567,479.116116 574.330407,481.690023 578.671715,483.484297 C583.304063,485.39836 588.221733,486.25004 593.224314,486.251755 C598.88817,486.253471 604.454821,485.30859 609.706416,483.152088 C614.535459,481.168838 618.76441,478.287879 622.24975,474.400286 L623.39247,473.125483 L628.015955,477.749826 L626.960719,478.893976 C622.81239,483.392811 617.802375,486.786664 612.159391,489.147295 C606.126732,491.670885 599.748998,492.799025 593.223457,492.797595 C587.363478,492.79588 581.63787,491.761799 576.21874,489.508093 C571.069209,487.366172 566.500901,484.276797 562.625602,480.271701 C558.695983,476.209998 555.748411,471.447283 553.689971,466.18854 C551.463996,460.504386 550.466225,454.482019 550.466225,448.388751 C550.466225,442.308919 551.464568,436.338013 553.689971,430.669012 C555.750126,425.422563 558.705703,420.69444 562.625602,416.643315 C566.50033,412.639078 571.075785,409.588584 576.215309,407.436942 C581.633867,405.167798 587.35919,404.144296 593.223457,404.144296 C599.045412,404.144296 604.747577,405.134634 610.109813,407.443518 C615.108678,409.596017 619.488009,412.665094 623.164898,416.674764 C626.912117,420.761911 629.669283,425.501755 631.560761,430.707894 C633.62063,436.379182 634.467735,442.364097 634.493466,448.381317 L634.500899,450.009486 L557.04437,450.009486 Z M812.585989,422.600498 C815.265964,418.003887 818.827637,414.079128 823.409667,410.976887 C830.431807,406.222176 838.54978,404.231207 846.962797,404.144296 C853.506635,404.07711 860.022456,405.284729 865.832975,408.382109 C871.104869,411.192452 875.169716,415.280171 877.957473,420.565788 C881.022547,426.376307 882.137536,432.949592 882.137536,439.466842 L882.137536,492.797595 L875.591124,492.797595 L875.591124,439.466842 C875.591124,434.079161 874.713428,428.62115 872.172113,423.81555 C869.935274,419.587457 866.714673,416.35399 862.491726,414.107432 C857.731297,411.574978 852.35105,410.62924 846.998248,410.690135 C840.801199,410.760465 834.76368,412.058712 829.319106,415.084905 C824.357979,417.841785 820.519846,421.701932 817.715793,426.638186 C814.522924,432.258299 812.585989,438.244072 812.585989,444.753888 L812.585989,492.797595 L806.040149,492.797595 L806.040149,404.144296 L812.585989,404.144296 L812.585989,422.600498 Z M1094.6223,404.144296 C1100.34448,404.145153 1105.93229,405.162366 1111.24935,407.288849 C1116.31512,409.314697 1120.87628,412.224817 1124.81876,415.99262 L1125.97378,417.096458 L1121.64448,421.759397 L1120.45716,420.67357 C1117.035,417.542739 1113.1294,415.089765 1108.82869,413.353814 C1104.29926,411.524661 1099.49909,410.690707 1094.6223,410.690135 C1089.56369,410.689277 1084.59084,411.54496 1079.89874,413.461596 C1075.51426,415.251009 1071.61638,417.809479 1068.30086,421.190467 C1064.94818,424.610336 1062.41658,428.608856 1060.66691,433.066237 C1058.74284,437.965896 1057.91631,443.136298 1057.91631,448.388751 C1057.91631,453.655498 1058.74284,458.878504 1060.66691,463.795317 C1062.41744,468.266421 1064.94732,472.289242 1068.30343,475.727123 C1071.61781,479.121833 1075.5054,481.68745 1079.89874,483.481152 C1084.59084,485.396931 1089.56455,486.250898 1094.6223,486.251755 C1099.97654,486.252613 1105.2167,485.299441 1110.1398,483.164095 C1114.79902,481.143107 1118.80412,478.233559 1122.15022,474.414009 L1123.33411,473.0623 L1127.7023,477.768409 L1126.73054,478.868245 C1122.80492,483.31419 1118.07308,486.736347 1112.65224,489.134429 C1106.94864,491.65802 1100.84623,492.798167 1094.6223,492.797595 C1088.72402,492.796737 1082.94495,491.762657 1077.4835,489.509523 C1072.30767,487.374177 1067.71249,484.282514 1063.80717,480.275704 C1059.85325,476.218861 1056.87652,471.457003 1054.78892,466.195687 C1052.53521,460.514678 1051.53429,454.487737 1051.53429,448.388751 C1051.53429,442.303201 1052.53607,436.327435 1054.78977,430.662436 C1056.87823,425.411985 1059.86297,420.685577 1063.80717,416.639313 C1067.71163,412.63336 1072.31396,409.580579 1077.48036,407.435513 C1082.9418,405.167226 1088.72001,404.143438 1094.6223,404.144296 Z M1320.52868,491.521076 L1284.50111,404.144296 L1291.81115,404.144296 L1323.9171,483.049166 L1355.54246,404.144296 L1363.01774,404.144296 L1322.12425,504.180483 C1319.82766,509.799167 1316.5779,515.339802 1311.97328,519.378919 C1308.07283,522.800503 1303.54483,524.83207 1298.32583,524.847508 C1295.35424,524.856371 1292.39866,524.495858 1289.53714,523.684489 C1286.91521,522.942307 1284.43135,521.82303 1282.1948,520.259759 L1281.01949,519.439814 L1284.01824,513.774815 L1285.51175,514.777447 C1287.27515,515.960478 1289.20465,516.821307 1291.24536,517.399957 C1293.44075,518.021492 1295.70503,518.309101 1297.98561,518.301954 C1301.98413,518.288803 1305.41201,516.791288 1308.40332,514.162202 C1312.11652,510.897859 1314.67927,506.371006 1316.47269,501.817279 L1320.52868,491.521076 Z M121.590225,464.104083 L121.444418,449.513459 L91.3294394,449.513459 C86.3674551,449.513459 81.1250084,450.016062 76.4066062,451.628793 C73.0167556,452.788381 69.7718534,454.587514 67.516432,457.435309 C65.4168231,460.085265 64.5236888,463.190079 64.5351246,466.555628 C64.5471321,470.195065 65.3705082,473.696128 67.3163059,476.796082 C69.2426628,479.864873 71.9372181,482.107429 75.1878381,483.690141 C79.018538,485.554173 83.3089562,486.230027 87.5384789,486.251755 C92.473875,486.276914 97.4132736,485.629363 102.085361,484.001194 C106.425811,482.489098 110.221917,480.084726 113.480542,476.839824 C117.076237,473.257566 119.671873,468.774455 121.590225,464.104083 Z M339.138185,483.278453 C343.99982,483.278453 348.775687,482.447644 353.270234,480.567602 C357.464877,478.81221 361.210381,476.294337 364.38095,473.030852 C367.592403,469.724197 370.022792,465.875771 371.717574,461.587926 C373.551301,456.946715 374.357809,452.04677 374.357809,447.066775 C374.357809,442.04561 373.550729,437.115932 371.715859,432.430979 C370.021362,428.104824 367.59326,424.230383 364.373517,420.875125 C361.208093,417.576761 357.480316,415.038018 353.265945,413.26147 C348.776259,411.368277 343.99982,410.524602 339.138185,410.524602 C334.290272,410.524602 329.513833,411.367419 325.038727,413.260612 C320.827788,415.042021 317.143752,417.569614 313.987191,420.872838 C310.783458,424.223807 308.37737,428.10654 306.698312,432.426977 C304.87745,437.112501 304.083235,442.05047 304.083235,447.066775 C304.083235,452.04191 304.876592,456.94986 306.696596,461.591929 C308.37594,465.873198 310.778598,469.724197 313.979758,473.033139 C317.140321,476.300055 320.840653,478.808207 325.034725,480.568459 C329.515263,482.448501 334.290272,483.278453 339.138185,483.278453 Z M557.330551,443.463933 L627.798675,443.463933 C627.354681,439.218114 626.396077,435.039481 624.741892,431.089563 C623.042535,427.031863 620.706777,423.36984 617.619975,420.228432 C614.589779,417.145632 611.026391,414.807587 607.016721,413.187709 C602.623381,411.413734 597.945576,410.690135 593.223457,410.690135 C588.471891,410.690135 583.793514,411.448613 579.363007,413.193427 C575.216966,414.825599 571.485757,417.179654 568.270016,420.262453 C565.013964,423.384421 562.474078,427.026145 560.613477,431.132733 C558.838644,435.049201 557.793986,439.208394 557.330551,443.463933 L557.330551,443.463933 Z" id="Fill-2"></path>
                </g>
            </g>
        </g>
    </g>
</svg>

<svg width="1390" height="525" viewBox="0 0 1390 525" xmlns="http://www.w3.org/2000/svg"><title>onyx</title><path d="M672.198 6.928h130.84l77.545 134.312L958.128 6.928h159.614l64.271 83.082 64.273-83.082h143.258l-135.9 175.676 135.9 175.675h-143.26l-64.27-83.082-64.272 83.082H974.484l135.9-175.675-70.343-90.93-42.868 74.249-91.796 158.995-19.261 33.361h-130.84l59.887-103.728L704.908 63.583v294.696H591.596c0 .72-114.022-140.39-139.386-171.717V358.28H338.9v-81.803c-31.891 52.982-89.952 88.427-156.296 88.427-100.682 0-182.3-81.618-182.3-182.3C.304 81.924 81.922.305 182.604.305c66.344 0 124.405 35.445 156.295 88.427V6.928h113.31c46.764 57 92.991 114.415 139.387 171.717V6.928h80.602zM254.85 182.604c0-90.813-144.492-90.813-144.492 0 0 90.812 144.492 90.812 144.492 0zM121.639 477.208a37.329 37.329 0 0 1-6.67 6.87c-3.806 3.009-8.067 5.19-12.701 6.61-4.843 1.486-9.851 2.134-14.911 2.11-5.286-.026-10.522-.994-15.263-3.397-4.275-2.166-7.785-5.222-10.333-9.286-2.579-4.113-3.772-8.706-3.772-13.554 0-4.746 1.295-9.114 4.227-12.865 2.998-3.838 7.153-6.351 11.676-8.012 5.518-2.028 11.587-2.716 17.437-2.716h30.1v-8.787c0-4.41-.791-8.81-2.892-12.725-1.899-3.539-4.715-6.115-8.3-7.908-4.355-2.177-9.463-2.859-14.282-2.858-5.23 0-10.304 1-15.103 3.087-4.966 2.159-9.572 5.05-13.781 8.448l-1.307 1.056-3.932-5.242 1.225-.982a71.859 71.859 0 0 1 10.084-6.79 51.021 51.021 0 0 1 10.863-4.491 43.43 43.43 0 0 1 11.955-1.632c5.929.013 11.99.978 17.312 3.703 4.677 2.396 8.393 5.853 10.924 10.466 2.673 4.871 3.746 10.338 3.779 15.858l.34 58.627h-6.541l-.134-15.59zm252.719-6.651a39.8 39.8 0 0 1-5.595 7.164c-3.772 3.83-8.176 6.747-13.15 8.788-5.255 2.155-10.804 3.15-16.475 3.15-5.697 0-11.277-1.005-16.541-3.21-4.962-2.078-9.402-5.039-13.148-8.902-3.785-3.902-6.63-8.478-8.631-13.528-2.148-5.42-3.116-11.133-3.116-16.952 0-5.883.964-11.653 3.113-17.14 1.992-5.08 4.836-9.685 8.632-13.614 3.75-3.88 8.175-6.86 13.147-8.957 5.26-2.217 10.849-3.212 16.544-3.212 5.67 0 11.228.983 16.478 3.151 4.985 2.06 9.374 4.997 13.15 8.844a39.612 39.612 0 0 1 5.592 7.212v-19.207h6.545v77.286c0 6.07-.875 12.123-2.992 17.828-1.911 5.153-4.72 9.796-8.565 13.73-3.796 3.884-8.315 6.764-13.379 8.722-5.52 2.135-11.445 3.082-17.355 2.973-6.64-.122-13.128-1.455-19.227-4.099-6.117-2.65-11.518-6.565-16.245-11.239l-1.159-1.146 4.61-4.61 1.146 1.146c4.095 4.093 8.758 7.516 14.09 9.818 5.358 2.311 11.017 3.474 16.846 3.584 6.612.126 13.119-1.202 18.92-4.447 5.339-2.986 9.426-7.218 12.302-12.62 3.23-6.066 4.463-12.813 4.463-19.64v-10.873zm182.686-20.548c.166 4.709.967 9.383 2.669 13.794 1.722 4.464 4.205 8.485 7.529 11.93 3.263 3.383 7.088 5.957 11.43 7.751 4.632 1.914 9.55 2.766 14.552 2.768 5.664.001 11.23-.943 16.482-3.1 4.83-1.983 9.058-4.864 12.544-8.752l1.142-1.275 4.624 4.625-1.055 1.144c-4.149 4.499-9.159 7.893-14.802 10.253-6.032 2.524-12.41 3.652-18.936 3.65-5.86-.001-11.585-1.035-17.004-3.289-5.15-2.142-9.718-5.231-13.593-9.236-3.93-4.062-6.878-8.825-8.936-14.083-2.226-5.685-3.224-11.707-3.224-17.8 0-6.08.999-12.051 3.224-17.72 2.06-5.246 5.016-9.975 8.936-14.026 3.874-4.004 8.45-7.054 13.59-9.206 5.418-2.27 11.143-3.293 17.007-3.293 5.822 0 11.525.99 16.887 3.3 4.999 2.152 9.378 5.221 13.055 9.23 3.747 4.088 6.504 8.828 8.396 14.034 2.06 5.671 2.907 11.656 2.932 17.673l.008 1.628h-77.457zM812.586 422.6c2.68-4.596 6.242-8.52 10.824-11.623 7.022-4.755 15.14-6.746 23.553-6.833 6.544-.067 13.06 1.14 18.87 4.238 5.272 2.81 9.337 6.898 12.124 12.184 3.066 5.81 4.18 12.384 4.18 18.9v53.332h-6.546v-53.331c0-5.388-.878-10.846-3.419-15.651-2.237-4.229-5.457-7.462-9.68-9.709-4.76-2.532-10.14-3.478-15.494-3.417-6.197.07-12.234 1.369-17.679 4.395-4.961 2.757-8.8 6.617-11.603 11.553-3.193 5.62-5.13 11.606-5.13 18.116v48.044h-6.546v-88.654h6.546V422.6zm282.036-18.456c5.722.001 11.31 1.018 16.627 3.145 5.066 2.026 9.627 4.936 13.57 8.704l1.155 1.103-4.33 4.663-1.187-1.085a38.485 38.485 0 0 0-11.628-7.32c-4.53-1.83-9.33-2.663-14.207-2.664-5.058 0-10.031.855-14.723 2.772-4.385 1.789-8.283 4.347-11.598 7.728-3.353 3.42-5.884 7.419-7.634 11.876-1.924 4.9-2.75 10.07-2.75 15.323 0 5.266.826 10.49 2.75 15.406 1.75 4.471 4.28 8.494 7.636 11.932 3.315 3.395 7.202 5.96 11.596 7.754 4.692 1.916 9.666 2.77 14.723 2.77 5.355.002 10.595-.952 15.518-3.087 4.659-2.02 8.664-4.93 12.01-8.75l1.184-1.352 4.368 4.706-.971 1.1c-3.926 4.446-8.658 7.868-14.079 10.266-5.703 2.524-11.806 3.664-18.03 3.664-5.898-.001-11.677-1.035-17.139-3.288-5.175-2.136-9.77-5.227-13.676-9.234-3.954-4.057-6.93-8.819-9.018-14.08-2.254-5.681-3.255-11.708-3.255-17.807 0-6.086 1.002-12.062 3.256-17.727 2.088-5.25 5.073-9.976 9.017-14.023 3.905-4.006 8.507-7.058 13.673-9.203 5.462-2.269 11.24-3.293 17.142-3.292zm225.907 87.377l-36.028-87.377h7.31l32.106 78.905 31.625-78.905h7.476l-40.894 100.036c-2.296 5.62-5.546 11.16-10.15 15.199-3.901 3.422-8.43 5.453-13.648 5.469-2.972.008-5.927-.352-8.789-1.164-2.622-.742-5.106-1.861-7.342-3.424l-1.176-.82 3-5.665 1.493 1.002c1.763 1.183 3.693 2.044 5.733 2.623 2.196.621 4.46.91 6.74.902 4-.013 7.427-1.51 10.418-4.14 3.714-3.264 6.276-7.791 8.07-12.345l4.056-10.296zM121.59 464.104l-.146-14.59H91.33c-4.962 0-10.204.502-14.922 2.115-3.39 1.16-6.635 2.959-8.89 5.806-2.1 2.65-2.993 5.755-2.982 9.12.012 3.64.836 7.141 2.781 10.241 1.927 3.069 4.621 5.311 7.872 6.894 3.83 1.864 8.121 2.54 12.35 2.562 4.936.025 9.875-.623 14.547-2.25 4.34-1.513 8.137-3.917 11.396-7.162 3.595-3.582 6.19-8.066 8.11-12.736zm217.548 19.174c4.862 0 9.638-.83 14.132-2.71 4.195-1.756 7.94-4.274 11.111-7.537 3.211-3.307 5.642-7.155 7.337-11.443 1.833-4.641 2.64-9.541 2.64-14.521 0-5.021-.807-9.951-2.642-14.636-1.695-4.326-4.123-8.2-7.342-11.556-3.166-3.298-6.894-5.837-11.108-7.614-4.49-1.893-9.266-2.736-14.128-2.736-4.848 0-9.624.842-14.1 2.736-4.21 1.781-7.894 4.309-11.05 7.612-3.205 3.35-5.61 7.234-7.29 11.554-1.82 4.686-2.615 9.623-2.615 14.64 0 4.975.794 9.883 2.614 14.525 1.679 4.281 4.082 8.132 7.283 11.441 3.16 3.267 6.86 5.775 11.055 7.535 4.48 1.88 9.255 2.71 14.103 2.71zm218.193-39.814h70.468c-.444-4.246-1.403-8.425-3.057-12.374-1.7-4.058-4.035-7.72-7.122-10.862-3.03-3.082-6.594-5.42-10.603-7.04-4.394-1.774-9.071-2.498-13.794-2.498-4.751 0-9.43.759-13.86 2.503-4.146 1.633-7.877 3.987-11.093 7.07-3.256 3.121-5.796 6.763-7.657 10.87-1.774 3.916-2.819 8.075-3.282 12.33z" fill="#0829CC" fill-rule="evenodd" opacity=".02"/></svg>
